X:397
T:B397-  Robinson's Almain
Q:1/4=120
L:1/4
M:C
K:Dm
dfed|c2A2|cdcB|A3G/F/|\
GGGc|A3/2B/AG/F/|EDE2|[1 D4:|][2 D3A|]\
GFFE|F3/2G/Fc|BFGB|AB/A/GF|\
GGGc|A3/2B/AG/F/|EDE2:|D4|]

